X:36
C:Page 18
T:My ain Kind Dearie. MBe.36
S:Matthew Betham MS, Towcett Cumbria, 1815
O:England;Cumbria;Towcett
Z:VMP – Hugh Taylor, 2012
T:Lea Rig, aka. MBe.36
T:Lollipop Man,aka. MBe.36, The
M:C
L:1/8
Q:1/4=100
R:.Reel
K:G
B/A/|{G/A/} BD DE/F/ G>AGB|A>B c/B/A/G/ {G/A/} BE E”Qu’s in MS”B/A/|
{F/A/} GD DE/F/ G>A G”Qu’s in MS”g/f/|e>d e/f/g/d/ BGG:|
|:d|(e/d/e/f/) gB (c/B/c/d/) eG|A>B c/B/A/G/ “^NB”{G/A/} BE EB/A/|
{G/A/} BD DE/F/ G>A G”Qu’s in MS”g/f/|e>d e/f/g/d/ BGG:|
|:e/f/|(g/d/).B/.d/ (e/d/).B/.d/ (g/d/).B/.d/ (e/d/).B/.d/|\
(g/f/).e/.d/ (c/B/).A/.G/ BA Ae/g/|
(g/d/).B/.d/ (e/d/).B/.d/ (g/d/).B/.d/ (e/d/).B/.d/|e>d e/f/g/d/ BGG:|

